X:460
T: Paddy Spillane's #1
S: "Johnny O'Leary of Sliabh Luachra" (#49)
Z: B.Black
L: 1/8
M: 2/4
Q: 290
R: polka
K: D
D2 FD/F/|AF D2|FD/F/ AF|FE EF/E/|
D2 FD/F/|AF DE/F/|GE CE|1 ED DA :|2\
ED D2||
d>c d(3B/c/B/|AF D2|FD/F/ AD|1 FE ED|
dc d(3B/c/B/|AF DE/F/|GE CD|ED D2 :|2\
FE E2|Ad B/c/d/B/|AF DE/F/|GE CE|ED D2 ||
